archdroid-icon-theme/Archdroid-Amber/apps/scalable/liteide.svg

<svg xmlns="http://www.w3.org/2000/svg" height="559.47" viewBox="0 0 401.98 559.472" enable-background="new 0 0 401.98 559.472"><g fill-rule="evenodd"><g stroke="#000" stroke-linecap="round" stroke-width="3"><path fill="#f6d2a2" d="m10.634 300.49c.764 15.751 16.499 8.463 23.626 3.539 6.765-4.675 8.743-.789 9.337-10.01.389-6.06 1.088-12.13.744-18.216-10.23-.927-21.357 1.509-29.744 7.602-4.32 3.139-12.42 13.158-3.963 17.09"/><path fill="#c6b198" d="m10.634 300.49c2.29-.852 4.717-1.457 6.271-3.528"/><g fill="#6ad7e5"><path d="m46.997 112.85c-60.3-16.956-15.461-93.66 32.959-62.11l-32.959 62.11z"/><path d="m314.89 44.984c47.727-33.523 90.86 42.11 35.388 61.14l-35.388-61.14z"/></g><path fill="#f6d2a2" d="m325.16 494.34c12.12 7.501 34.28 30.18 16.1 41.18-17.474 15.999-27.25-17.561-42.591-22.21 6.605-8.97 14.977-17.15 26.495-18.969z"/><path fill="none" d="m341.26 535.52c-2.696-5.361-3.601-11.618-8.102-15.939"/><path fill="#f6d2a2" d="m108.58 519.98c-14.229 2.202-22.24 15.04-34.1 21.558-11.178 6.665-15.454-2.134-16.461-3.92-1.752-.799-1.605.744-4.309-1.979-10.362-16.354 10.797-28.31 21.815-36.432 15.346-3.102 24.963 10.202 33.06 20.773z"/><path fill="none" d="m58.02 537.61c.542-6.233 5.484-10.407 7.838-15.677"/></g><path d="m49.51 91.67c-7.955-4.208-13.791-9.923-8.925-19.12 4.505-8.518 12.874-7.593 20.83-3.385l-11.905 22.509"/><path d="m337.72 83.67c7.955-4.208 13.791-9.923 8.925-19.12-4.505-8.518-12.874-7.593-20.83-3.385l11.905 22.509"/><g stroke="#000" stroke-linecap="round"><g stroke-width="3"><path fill="#f6d2a2" d="m392.48 298.49c-.764 15.751-16.499 8.463-23.626 3.539-6.765-4.675-8.743-.789-9.337-10.01-.389-6.06-1.088-12.13-.744-18.216 10.23-.927 21.357 1.509 29.744 7.602 4.319 3.139 12.42 13.158 3.963 17.09"/><path fill="#c6b198" d="m392.48 298.49c-2.29-.852-4.717-1.457-6.271-3.528"/><path fill="#6ad7e5" d="m195.51 13.12c60.37 0 116.95 8.633 146.45 66.63 26.478 65.01 17.06 135.1 21.1 203.81 3.468 58.992 11.157 127.14-16.21 181.81-28.79 57.51-100.73 71.982-160 69.863-46.555-1.666-102.79-16.854-129.07-59.39-30.826-49.9-16.232-124.1-13.993-179.62 2.652-65.771-17.815-131.74 3.792-196.1 22.415-66.763 82.87-81.85 147.93-86.998"/></g><g fill="#fff"><path stroke-width="2.908" d="m206.17 94.16c10.838 63 113.82 46.34 99.03-17.197-13.264-56.98-102.63-41.21-99.03 17.197"/><path stroke-width="2.821" d="m83.1 104.35c14.05 54.85 101.86 40.807 98.55-14.213-3.966-65.895-111.98-53.18-98.55 14.213"/><path stroke-width="3" d="m218.59 169.76c.046 8.191 1.861 17.387.312 26.1-2.091 3.952-6.193 4.37-9.729 5.967-4.89-.767-9-3.978-10.963-8.552-1.255-9.946.468-19.576.785-29.526l19.595 6.01z"/></g></g><ellipse cx="107.32" cy="95.4" rx="14.829" ry="16.06"/><ellipse fill="#fff" cx="114.07" cy="99.03" rx="3.496" ry="4.082"/><ellipse cx="231.57" cy="91.4" rx="14.582" ry="16.06"/><g fill="#fff"><ellipse cx="238.2" cy="95.03" rx="3.438" ry="4.082"/><path stroke="#000" stroke-width="3" stroke-linecap="round" d="m176.22 168.87c-6.47 15.68 3.608 47.03 21.16 23.908-1.255-9.946.468-19.576.785-29.526l-21.948 5.618z"/></g><path fill="#f6d2a2" stroke="#231f20" stroke-width="3" stroke-linecap="round" d="m178.43 138.67c-12.06 1.028-21.916 15.366-15.646 26.709 8.303 15.02 26.836-1.329 38.38.203 13.285.272 24.17 14.05 34.84 2.49 11.867-12.854-5.109-25.373-18.377-30.97l-39.2 1.568z"/><path d="m176.91 138.04c-.893-20.891 38.938-23.503 43.642-6.02 4.692 17.446-41.681 21.498-43.642 6.02"/></g></svg>

<?xml version="1.0" encoding="utf-8"?>
<!-- Generator: Adobe Illustrator 15.0.0, SVG Export Plug-In . SVG Version: 6.00 Build 0)  -->
<!DOCTYPE svg PUBLIC "-//W3C//DTD SVG 1.1//EN" "http://www.w3.org/Graphics/SVG/1.1/DTD/svg11.dtd">
<svg version="1.1" id="レイヤー_1" xmlns="http://www.w3.org/2000/svg" xmlns:xlink="http://www.w3.org/1999/xlink" x="0px"
	 y="0px" width="401.98px" height="559.472px" viewBox="0 0 401.98 559.472" enable-background="new 0 0 401.98 559.472"
	 xml:space="preserve">
<path fill-rule="evenodd" clip-rule="evenodd" fill="#F6D2A2" stroke="#000000" stroke-width="3" stroke-linecap="round" d="
	M10.634,300.493c0.764,15.751,16.499,8.463,23.626,3.539c6.765-4.675,8.743-0.789,9.337-10.015
	c0.389-6.064,1.088-12.128,0.744-18.216c-10.23-0.927-21.357,1.509-29.744,7.602C10.277,286.542,2.177,296.561,10.634,300.493"/>
<path fill-rule="evenodd" clip-rule="evenodd" fill="#C6B198" stroke="#000000" stroke-width="3" stroke-linecap="round" d="
	M10.634,300.493c2.29-0.852,4.717-1.457,6.271-3.528"/>
<path fill-rule="evenodd" clip-rule="evenodd" fill="#6AD7E5" stroke="#000000" stroke-width="3" stroke-linecap="round" d="
	M46.997,112.853C-13.3,95.897,31.536,19.189,79.956,50.74L46.997,112.853z"/>
<path fill-rule="evenodd" clip-rule="evenodd" fill="#6AD7E5" stroke="#000000" stroke-width="3" stroke-linecap="round" d="
	M314.895,44.984c47.727-33.523,90.856,42.111,35.388,61.141L314.895,44.984z"/>
<path fill-rule="evenodd" clip-rule="evenodd" fill="#F6D2A2" stroke="#000000" stroke-width="3" stroke-linecap="round" d="
	M325.161,494.343c12.123,7.501,34.282,30.182,16.096,41.18c-17.474,15.999-27.254-17.561-42.591-22.211
	C305.271,504.342,313.643,496.163,325.161,494.343z"/>
<path fill-rule="evenodd" clip-rule="evenodd" fill="none" stroke="#000000" stroke-width="3" stroke-linecap="round" d="
	M341.257,535.522c-2.696-5.361-3.601-11.618-8.102-15.939"/>
<path fill-rule="evenodd" clip-rule="evenodd" fill="#F6D2A2" stroke="#000000" stroke-width="3" stroke-linecap="round" d="
	M108.579,519.975c-14.229,2.202-22.238,15.039-34.1,21.558c-11.178,6.665-15.454-2.134-16.461-3.92
	c-1.752-0.799-1.605,0.744-4.309-1.979c-10.362-16.354,10.797-28.308,21.815-36.432C90.87,496.1,100.487,509.404,108.579,519.975z"
	/>
<path fill-rule="evenodd" clip-rule="evenodd" fill="none" stroke="#000000" stroke-width="3" stroke-linecap="round" d="
	M58.019,537.612c0.542-6.233,5.484-10.407,7.838-15.677"/>
<path fill-rule="evenodd" clip-rule="evenodd" d="M49.513,91.667c-7.955-4.208-13.791-9.923-8.925-19.124
	c4.505-8.518,12.874-7.593,20.83-3.385L49.513,91.667z"/>
<path fill-rule="evenodd" clip-rule="evenodd" d="M337.716,83.667c7.955-4.208,13.791-9.923,8.925-19.124
	c-4.505-8.518-12.874-7.593-20.83-3.385L337.716,83.667z"/>
<path fill-rule="evenodd" clip-rule="evenodd" fill="#F6D2A2" stroke="#000000" stroke-width="3" stroke-linecap="round" d="
	M392.475,298.493c-0.764,15.751-16.499,8.463-23.626,3.539c-6.765-4.675-8.743-0.789-9.337-10.015
	c-0.389-6.064-1.088-12.128-0.744-18.216c10.23-0.927,21.357,1.509,29.744,7.602C392.831,284.542,400.932,294.561,392.475,298.493"
	/>
<path fill-rule="evenodd" clip-rule="evenodd" fill="#C6B198" stroke="#000000" stroke-width="3" stroke-linecap="round" d="
	M392.475,298.493c-2.29-0.852-4.717-1.457-6.271-3.528"/>
<g>
	<path fill-rule="evenodd" clip-rule="evenodd" fill="#6AD7E5" stroke="#000000" stroke-width="3" stroke-linecap="round" d="
		M195.512,13.124c60.365,0,116.953,8.633,146.452,66.629c26.478,65.006,17.062,135.104,21.1,203.806
		c3.468,58.992,11.157,127.145-16.21,181.812c-28.79,57.514-100.73,71.982-160,69.863c-46.555-1.666-102.794-16.854-129.069-59.389
		c-30.826-49.9-16.232-124.098-13.993-179.622c2.652-65.771-17.815-131.742,3.792-196.101
		C69.999,33.359,130.451,18.271,195.512,13.124"/>
</g>
<path fill-rule="evenodd" clip-rule="evenodd" fill="#FFFFFF" stroke="#000000" stroke-width="2.9081" stroke-linecap="round" d="
	M206.169,94.16c10.838,63.003,113.822,46.345,99.03-17.197C291.935,19.983,202.567,35.755,206.169,94.16"/>
<path fill-rule="evenodd" clip-rule="evenodd" fill="#FFFFFF" stroke="#000000" stroke-width="2.8214" stroke-linecap="round" d="
	M83.103,104.35c14.047,54.85,101.864,40.807,98.554-14.213C177.691,24.242,69.673,36.957,83.103,104.35"/>
<path fill-rule="evenodd" clip-rule="evenodd" fill="#FFFFFF" stroke="#000000" stroke-width="3" stroke-linecap="round" d="
	M218.594,169.762c0.046,8.191,1.861,17.387,0.312,26.101c-2.091,3.952-6.193,4.37-9.729,5.967c-4.89-0.767-9.002-3.978-10.963-8.552
	c-1.255-9.946,0.468-19.576,0.785-29.526L218.594,169.762z"/>
<g>
	<ellipse fill-rule="evenodd" clip-rule="evenodd" cx="107.324" cy="95.404" rx="14.829" ry="16.062"/>
	<ellipse fill-rule="evenodd" clip-rule="evenodd" fill="#FFFFFF" cx="114.069" cy="99.029" rx="3.496" ry="4.082"/>
</g>
<g>
	<ellipse fill-rule="evenodd" clip-rule="evenodd" cx="231.571" cy="91.404" rx="14.582" ry="16.062"/>
	<ellipse fill-rule="evenodd" clip-rule="evenodd" fill="#FFFFFF" cx="238.204" cy="95.029" rx="3.438" ry="4.082"/>
</g>
<path fill-rule="evenodd" clip-rule="evenodd" fill="#FFFFFF" stroke="#000000" stroke-width="3" stroke-linecap="round" d="
	M176.217,168.87c-6.47,15.68,3.608,47.035,21.163,23.908c-1.255-9.946,0.468-19.576,0.785-29.526L176.217,168.87z"/>
<g>
	<path fill-rule="evenodd" clip-rule="evenodd" fill="#F6D2A2" stroke="#231F20" stroke-width="3" stroke-linecap="round" d="
		M178.431,138.673c-12.059,1.028-21.916,15.366-15.646,26.709c8.303,15.024,26.836-1.329,38.379,0.203
		c13.285,0.272,24.17,14.047,34.84,2.49c11.867-12.854-5.109-25.373-18.377-30.97L178.431,138.673z"/>
	<path fill-rule="evenodd" clip-rule="evenodd" d="M176.913,138.045c-0.893-20.891,38.938-23.503,43.642-6.016
		C225.247,149.475,178.874,153.527,176.913,138.045C175.348,125.682,176.913,138.045,176.913,138.045z"/>
</g>
</svg>
